X:72
T:Magick Lanthern, The
M:6/8
L:1/8
B:Thompson's Compleat Collection of 200 Favourite Country Dances, vol. 3 (London, 1773)
Z:Transcribed and edited by Flynn Titford-Mock, 2007
Z:abc's:AK/Fiddler's Companion
K:A
A2c B2d | c2e A2c | ced cBA | GBA GFE | A2c B2d | c2f e2a | gfe Bc^d | e3 E3 :|
|: e2c e2c | d2B d2B | c2A c2A | GBA GFE | e2c e2c | d2B d2f | edc BAG | A3 [A,3A3] :|

